Hatter-kde/actions/24/preview-add-zone.svg

<svg xmlns="http://www.w3.org/2000/svg" viewBox="0 0 24 24">
  <defs id="defs3051">
    <style type="text/css" id="current-color-scheme">
      .ColorScheme-Text {
        color:#363636;
      }
      </style>
  </defs><g transform="translate(1,1)">
 <path 
    style="fill:currentColor;fill-opacity:1;stroke:none" 
    d="M7 11l-3 3 3 3 0-6zM15 11l0 6 3-3-3-3zM6.0234375 4.9941406L6.0234375 8.9941406 5.0234375 8.9941406 5.0234375 6.9941406 4.0234375 6.9941406 4.0234375 8.9941406 3.0234375 8.9941406 3.0234375 9.9941406 19.023438 9.9941406 19.023438 8.9941406 19 8.9941406 19 7 18 7 18 8.9941406 17.023438 8.9941406 17.023438 4.9941406 16.023438 4.9941406 16.023438 8.9941406 15.023438 8.9941406 15.023438 6.9941406 14.023438 6.9941406 14.023438 8.9941406 13.023438 8.9941406 13.023438 6.9941406 12.023438 6.9941406 12.023438 8.9941406 11.023438 8.9941406 11.023438 6.9941406 10.023438 6.9941406 10.023438 8.9941406 9.0234375 8.9941406 9.0234375 6.9941406 8.0234375 6.9941406 8.0234375 8.9941406 7.0234375 8.9941406 7.0234375 4.9941406 6.0234375 4.9941406zM10.5 11.5l0 2-2 0 0 1 2 0 0 2 1 0 0-2 2 0 0-1-2 0 0-2-1 0zM3 11H4V17H3zM18 11H19V17H18z"
    class="ColorScheme-Text"
    />  
</g></svg>

<?xml version="1.0" encoding="UTF-8"?>
<svg viewBox="0 0 24 24" xmlns="http://www.w3.org/2000/svg">
 <defs id="defs3051">
  <style id="current-color-scheme" type="text/css">.ColorScheme-Text {
        color:#363636;
      }</style>
 </defs>
 <g transform="translate(1,1)">
  <path class="ColorScheme-Text" d="m7 11-3 3 3 3v-6zm8 0v6l3-3-3-3zm-8.9766-6.0059v4h-1v-2h-1v2h-1v1h16v-1h-0.023438v-1.9941h-1v1.9941h-0.97656v-4h-1v4h-1v-2h-1v2h-1v-2h-1v2h-1v-2h-1v2h-1v-2h-1v2h-1v-4h-1zm4.4766 6.5059v2h-2v1h2v2h1v-2h2v-1h-2v-2h-1zm-7.5-0.5h1v6h-1zm15 0h1v6h-1z" fill="currentColor"/>
 </g>
</svg>
